X: 37050
T: Silver Pin, The
R: mazurka
M: 3/4
K: Dmajor
Ae ce Ae|Af df Af|Ag eg Ag|ba ^ga f=g|
af d2 ed|Ad f2 df|(3afd A2 fe|d4:|

